Simply-Cyan-Circles/scalable/notifications/notification-battery-000.svg

<svg xmlns="http://www.w3.org/2000/svg" width="48" height="48" viewBox="0 0 12.7 12.7"><path d="M6.42 1.93a4.49 4.49 0 0 0-2.22.56v7.8c1.44 1.03 3.1.72 4.3-.02l.01-7.77a4.84 4.84 0 0 0-2.1-.57zm-.05 2.03l.09.01c.23.05.34.31.3.53-.08.93-.2 1.85-.26 2.78h-.27c-.08-.97-.2-1.92-.3-2.88l.01-.1a.42.42 0 0 1 .34-.34h.1zm.01 3.9a.44.44 0 0 1 .1.87c-.27.08-.58-.14-.57-.43a.44.44 0 0 1 .16-.34.4.4 0 0 1 .27-.1.44.44 0 0 1 .04 0z" opacity=".5" fill="maroon"/><path d="M6.35 1.35a5 5 0 0 0-5 5 5 5 0 0 0 5 5 5 5 0 0 0 5-5 5 5 0 0 0-5-5zm-.01.75a4.3 4.3 0 0 1 4.3 4.3 4.3 4.3 0 0 1-4.3 4.29 4.3 4.3 0 0 1-4.3-4.3 4.3 4.3 0 0 1 4.3-4.3z" fill="maroon"/></svg>

<?xml version="1.0" encoding="UTF-8" standalone="no"?>
<svg
   xmlns:dc="http://purl.org/dc/elements/1.1/"
   xmlns:cc="http://creativecommons.org/ns#"
   xmlns:rdf="http://www.w3.org/1999/02/22-rdf-syntax-ns#"
   xmlns:svg="http://www.w3.org/2000/svg"
   xmlns="http://www.w3.org/2000/svg"
   xmlns:sodipodi="http://sodipodi.sourceforge.net/DTD/sodipodi-0.dtd"
   xmlns:inkscape="http://www.inkscape.org/namespaces/inkscape"
   width="48"
   height="48"
   viewBox="0 0 12.7 12.7"
   version="1.1"
   id="svg6"
   sodipodi:docname="notification-battery-000.svg"
   inkscape:version="0.92.4 (5da689c313, 2019-01-14)">
  <metadata
     id="metadata12">
    <rdf:RDF>
      <cc:Work
         rdf:about="">
        <dc:format>image/svg+xml</dc:format>
        <dc:type
           rdf:resource="http://purl.org/dc/dcmitype/StillImage" />
        <dc:title></dc:title>
      </cc:Work>
    </rdf:RDF>
  </metadata>
  <defs
     id="defs10" />
  <sodipodi:namedview
     pagecolor="#ffffff"
     bordercolor="#666666"
     borderopacity="1"
     objecttolerance="10"
     gridtolerance="10"
     guidetolerance="10"
     inkscape:pageopacity="0"
     inkscape:pageshadow="2"
     inkscape:window-width="1087"
     inkscape:window-height="480"
     id="namedview8"
     showgrid="false"
     inkscape:zoom="4.9166667"
     inkscape:cx="2.1355932"
     inkscape:cy="24"
     inkscape:window-x="0"
     inkscape:window-y="25"
     inkscape:window-maximized="0"
     inkscape:current-layer="svg6" />
  <path
     d="M 6.42,1.93 A 4.49,4.49 0 0 0 4.2,2.49 v 7.8 c 1.44,1.03 3.1,0.72 4.3,-0.02 L 8.51,2.5 A 4.84,4.84 0 0 0 6.41,1.93 Z M 6.37,3.96 6.46,3.97 C 6.69,4.02 6.8,4.28 6.76,4.5 6.68,5.43 6.56,6.35 6.5,7.28 H 6.23 C 6.15,6.31 6.03,5.36 5.93,4.4 L 5.94,4.3 A 0.42,0.42 0 0 1 6.28,3.96 h 0.1 z m 0.01,3.9 a 0.44,0.44 0 0 1 0.1,0.87 C 6.21,8.81 5.9,8.59 5.91,8.3 a 0.44,0.44 0 0 1 0.16,-0.34 0.4,0.4 0 0 1 0.27,-0.1 0.44,0.44 0 0 1 0.04,0 z"
     id="path2"
     inkscape:connector-curvature="0"
     style="opacity:0.5;fill:#800000" />
  <path
     d="m 6.35,1.35 a 5,5 0 0 0 -5,5 5,5 0 0 0 5,5 5,5 0 0 0 5,-5 5,5 0 0 0 -5,-5 z M 6.34,2.1 a 4.3,4.3 0 0 1 4.3,4.3 4.3,4.3 0 0 1 -4.3,4.29 4.3,4.3 0 0 1 -4.3,-4.3 4.3,4.3 0 0 1 4.3,-4.3 z"
     id="path4"
     inkscape:connector-curvature="0"
     style="fill:#800000" />
</svg>
